img/icons/svg/icon__at.svg

<svg width="16" height="16" fill="none" xmlns="http://www.w3.org/2000/svg">
  <path d="M8 0C3.58886 0 0 3.58886 0 8C0 12.4111 3.58886 16 8 16C9.40674 16 10.79 15.6299 12.001 14.9292L11 13.1977C10.0928 13.7226 9.05517 14 8 14C4.69142 14 1.99999 11.3086 1.99999 8C1.99999 4.69142 4.69142 1.99999 8 1.99999C11.3086 1.99999 14 4.69142 14 8V8.87109C14 9.5254 13.5796 9.99999 13 9.99999C12.4487 9.99999 12 9.55126 12 8.99998V5H10.6176C9.91413 4.38542 9.00527 3.99998 8 3.99998C5.79443 3.99998 3.99998 5.79443 3.99998 8C3.99998 10.2056 5.79443 12 8 12C9.05029 12 9.99989 11.5847 10.7144 10.9202C11.2651 11.5747 12.0797 12 13 12C14.6821 12 16 10.6255 16 8.87109V8C16 3.58886 12.4111 0 8 0V0ZM8 9.99999C6.89696 9.99999 6.00001 9.10301 6.00001 8C6.00001 6.89696 6.89699 6.00001 8 6.00001C9.10304 6.00001 9.99999 6.89699 9.99999 8C9.99999 9.10304 9.10304 9.99999 8 9.99999Z" fill="#304BAB"/>
</svg>

<svg width="16" height="16" fill="none" xmlns="http://www.w3.org/2000/svg"><path d="M8 0C3.589 0 0 3.589 0 8s3.589 8 8 8c1.407 0 2.79-.37 4.001-1.07L11 13.197A5.997 5.997 0 018 14c-3.309 0-6-2.691-6-6s2.691-6 6-6 6 2.691 6 6v.871C14 9.525 13.58 10 13 10c-.551 0-1-.449-1-1V5h-1.382A3.966 3.966 0 008 4C5.794 4 4 5.794 4 8s1.794 4 4 4c1.05 0 2-.415 2.714-1.08A2.981 2.981 0 0013 12c1.682 0 3-1.374 3-3.129V8c0-4.411-3.589-8-8-8zm0 10c-1.103 0-2-.897-2-2s.897-2 2-2 2 .897 2 2-.897 2-2 2z" fill="#304BAB"/></svg>
